X: 2101
T: Father Kelly's
B: nick
B: to learn
M:4/4
Q: 1/4=100
K:Dmajor
V:1 
|:"G"GA|"G"B2 GB AGEG|"G" DGGF G2AB|"C"c2 AB cBAG|FAAG "D"FD GA|
 "G"B2 GB AGEG|"G"DGGF G2(3.A.B.c|"C"d2 Bd gdBd|"D"cAFA "G"G2:|
 |:"G"Bc|"G"d2 (3.B.c.d gdBd|d2 (3.B.c.d gdBd|"C"e2 ce agfe|"D"defg agfe|
 "G"d2 (3.B.c.d gdBd|"G"d2 (3.B.c.d gdBd|"C"cBAc BAGB|"D" AGFA "G"G2:|
% abcbook-tune_id 634560e41c7534ebf3190b4d
% abcbook-link-0 https://www.youtube.com/watch?v=vbCyjWUhEM4
% abcbook-link-title-0 Fergal Scahill&#39;s tune a day 2019 - Day 22 - Father Kelly&#39;s

% abcbook-boost 0
% abcbook-tablature 
% abcbook-transpose 
% abcbook-lastupdated 1666788570801
% abcbook-soundfonts 
% abcbook-repeats 3


